storage/app/icons/phosphoricons/regular/chart-bar-horizontal.svg

<svg xmlns="http://www.w3.org/2000/svg" fill="currentColor" viewBox="0 0 256 256"><path d="M224 96h-40V56a8 8 0 0 0-8-8H56v-8a8 8 0 0 0-16 0v176a8 8 0 0 0 16 0v-8h88a8 8 0 0 0 8-8v-40h72a8 8 0 0 0 8-8v-48a8 8 0 0 0-8-8m-56-32v32H56V64Zm-32 128H56v-32h80Zm80-48H56v-32h160Z"/></svg>

<svg xmlns="http://www.w3.org/2000/svg" viewBox="0 0 256 256" fill="currentColor"><path d="M224,96H184V56a8,8,0,0,0-8-8H56V40a8,8,0,0,0-16,0V216a8,8,0,0,0,16,0v-8h88a8,8,0,0,0,8-8V160h72a8,8,0,0,0,8-8V104A8,8,0,0,0,224,96ZM168,64V96H56V64ZM136,192H56V160h80Zm80-48H56V112H216Z"/></svg>
